Gallery/assets/presets/IceParfume_TDvorak.xmp
<x:xmpmeta xmlns:x="adobe:ns:meta/" x:xmptk="Adobe XMP Core 7.0-c000 1.000000, 0000/00/00-00:00:00        ">
 <rdf:RDF xmlns:rdf="http://www.w3.org/1999/02/22-rdf-syntax-ns#">
  <rdf:Description rdf:about=""
    xmlns:crs="http://ns.adobe.com/camera-raw-settings/1.0/"
   crs:Version="17.1"
   crs:ProcessVersion="15.4"
   crs:WhiteBalance="Custom"
   crs:Temperature="6000"
   crs:Tint="+10"
   crs:Exposure2012="+0.35"
   crs:Contrast2012="-6"
   crs:Highlights2012="-77"
   crs:Shadows2012="+46"
   crs:Whites2012="-33"
   crs:Blacks2012="+48"
   crs:Texture="+20"
   crs:Clarity2012="+5"
   crs:Dehaze="0"
   crs:Vibrance="+15"
   crs:Saturation="+5"
   crs:ParametricShadows="0"
   crs:ParametricDarks="0"
   crs:ParametricLights="0"
   crs:ParametricHighlights="0"
   crs:ParametricShadowSplit="14"
   crs:ParametricMidtoneSplit="60"
   crs:ParametricHighlightSplit="75"
   crs:Sharpness="52"
   crs:SharpenRadius="+1.0"
   crs:SharpenDetail="25"
   crs:SharpenEdgeMasking="62"
   crs:LuminanceSmoothing="0"
   crs:ColorNoiseReduction="25"
   crs:ColorNoiseReductionDetail="50"
   crs:ColorNoiseReductionSmoothness="50"
   crs:HueAdjustmentRed="+20"
   crs:HueAdjustmentOrange="+10"
   crs:HueAdjustmentYellow="-27"
   crs:HueAdjustmentGreen="-93"
   crs:HueAdjustmentAqua="-36"
   crs:HueAdjustmentBlue="-10"
   crs:HueAdjustmentPurple="0"
   crs:HueAdjustmentMagenta="0"
   crs:SaturationAdjustmentRed="-6"
   crs:SaturationAdjustmentOrange="-43"
   crs:SaturationAdjustmentYellow="-45"
   crs:SaturationAdjustmentGreen="-52"
   crs:SaturationAdjustmentAqua="-60"
   crs:SaturationAdjustmentBlue="-65"
   crs:SaturationAdjustmentPurple="-100"
   crs:SaturationAdjustmentMagenta="-59"
   crs:LuminanceAdjustmentRed="-17"
   crs:LuminanceAdjustmentOrange="-7"
   crs:LuminanceAdjustmentYellow="+15"
   crs:LuminanceAdjustmentGreen="+27"
   crs:LuminanceAdjustmentAqua="+37"
   crs:LuminanceAdjustmentBlue="+20"
   crs:LuminanceAdjustmentPurple="-32"
   crs:LuminanceAdjustmentMagenta="-43"
   crs:SplitToningShadowHue="218"
   crs:SplitToningShadowSaturation="11"
   crs:SplitToningHighlightHue="211"
   crs:SplitToningHighlightSaturation="11"
   crs:SplitToningBalance="+45"
   crs:ColorGradeMidtoneHue="0"
   crs:ColorGradeMidtoneSat="0"
   crs:ColorGradeShadowLum="0"
   crs:ColorGradeMidtoneLum="0"
   crs:ColorGradeHighlightLum="0"
   crs:ColorGradeBlending="100"
   crs:ColorGradeGlobalHue="0"
   crs:ColorGradeGlobalSat="0"
   crs:ColorGradeGlobalLum="0"
   crs:AutoLateralCA="1"
   crs:LensProfileEnable="1"
   crs:LensManualDistortionAmount="0"
   crs:VignetteAmount="0"
   crs:DefringePurpleAmount="0"
   crs:DefringePurpleHueLo="30"
   crs:DefringePurpleHueHi="70"
   crs:DefringeGreenAmount="0"
   crs:DefringeGreenHueLo="40"
   crs:DefringeGreenHueHi="60"
   crs:PerspectiveUpright="0"
   crs:PerspectiveVertical="0"
   crs:PerspectiveHorizontal="0"
   crs:PerspectiveRotate="0.0"
   crs:PerspectiveAspect="0"
   crs:PerspectiveScale="100"
   crs:PerspectiveX="0.00"
   crs:PerspectiveY="0.00"
   crs:GrainAmount="20"
   crs:GrainSize="25"
   crs:GrainFrequency="50"
   crs:PostCropVignetteAmount="-40"
   crs:PostCropVignetteMidpoint="50"
   crs:PostCropVignetteFeather="50"
   crs:PostCropVignetteRoundness="0"
   crs:PostCropVignetteStyle="1"
   crs:PostCropVignetteHighlightContrast="0"
   crs:ShadowTint="0"
   crs:RedHue="-12"
   crs:RedSaturation="0"
   crs:GreenHue="+15"
   crs:GreenSaturation="0"
   crs:BlueHue="-6"
   crs:BlueSaturation="+1"
   crs:HDREditMode="0"
   crs:CurveRefineSaturation="100"
   crs:OverrideLookVignette="False"
   crs:ToneCurveName2012="Custom"
   crs:LensProfileSetup="LensDefaults"
   crs:GrainSeed="4000873377"
   crs:HasSettings="True"
   crs:CropTop="0.051142"
   crs:CropLeft="0.133928"
   crs:CropBottom="0.755978"
   crs:CropRight="0.838765"
   crs:CropAngle="0"
   crs:CropConstrainToWarp="0"
   crs:CropConstrainToUnitSquare="1"
   crs:HasCrop="True"
   crs:AsShotTemperature="6750"
   crs:AsShotTint="10"
   crs:ClipboardOrientation="1"
   crs:ClipboardAspectRatio="1.5"
   crs:SubsetLensBlur="True"
   crs:SubsetRetouch="True"
   crs:MaskMergeOption="1"
   crs:MaskDeleteOption="0">
   <crs:ToneCurvePV2012>
    <rdf:Seq>
     <rdf:li>0, 20</rdf:li>
     <rdf:li>92, 76</rdf:li>
     <rdf:li>203, 201</rdf:li>
     <rdf:li>255, 241</rdf:li>
    </rdf:Seq>
   </crs:ToneCurvePV2012>
   <crs:ToneCurvePV2012Red>
    <rdf:Seq>
     <rdf:li>0, 0</rdf:li>
     <rdf:li>43, 20</rdf:li>
     <rdf:li>113, 123</rdf:li>
     <rdf:li>178, 203</rdf:li>
     <rdf:li>255, 255</rdf:li>
    </rdf:Seq>
   </crs:ToneCurvePV2012Red>
   <crs:ToneCurvePV2012Green>
    <rdf:Seq>
     <rdf:li>0, 0</rdf:li>
     <rdf:li>43, 22</rdf:li>
     <rdf:li>113, 123</rdf:li>
     <rdf:li>178, 203</rdf:li>
     <rdf:li>255, 255</rdf:li>
    </rdf:Seq>
   </crs:ToneCurvePV2012Green>
   <crs:ToneCurvePV2012Blue>
    <rdf:Seq>
     <rdf:li>0, 0</rdf:li>
     <rdf:li>42, 23</rdf:li>
     <rdf:li>116, 122</rdf:li>
     <rdf:li>178, 203</rdf:li>
     <rdf:li>255, 255</rdf:li>
    </rdf:Seq>
   </crs:ToneCurvePV2012Blue>
   <crs:PointColors>
    <rdf:Seq>
     <rdf:li>-1.000000, -1.000000, -1.000000, -1.000000, -1.000000, -1.000000, -1.000000, -1.000000, -1.000000, -1.000000, -1.000000, -1.000000, -1.000000, -1.000000, -1.000000, -1.000000, -1.000000, -1.000000, -1.000000</rdf:li>
    </rdf:Seq>
   </crs:PointColors>
   <crs:Look>
    <rdf:Description
     crs:Name="Adobe Color"
     crs:Amount="1"
     crs:UUID="B952C231111CD8E0ECCF14B86BAA7077"
     crs:SupportsAmount="false"
     crs:SupportsMonochrome="false"
     crs:SupportsOutputReferred="false"
     crs:Copyright="© 2018 Adobe Systems, Inc.">
    <crs:Group>
     <rdf:Alt>
      <rdf:li xml:lang="x-default">Profiles</rdf:li>
     </rdf:Alt>
    </crs:Group>
    <crs:Parameters>
     <rdf:Description
      crs:Version="17.1"
      crs:ProcessVersion="15.4"
      crs:ConvertToGrayscale="False"
      crs:CameraProfile="Adobe Standard"
      crs:LookTable="E1095149FDB39D7A057BAB208837E2E1">
     <crs:ToneCurvePV2012>
      <rdf:Seq>
       <rdf:li>0, 0</rdf:li>
       <rdf:li>22, 16</rdf:li>
       <rdf:li>40, 35</rdf:li>
       <rdf:li>127, 127</rdf:li>
       <rdf:li>224, 230</rdf:li>
       <rdf:li>240, 246</rdf:li>
       <rdf:li>255, 255</rdf:li>
      </rdf:Seq>
     </crs:ToneCurvePV2012>
     <crs:ToneCurvePV2012Red>
      <rdf:Seq>
       <rdf:li>0, 0</rdf:li>
       <rdf:li>255, 255</rdf:li>
      </rdf:Seq>
     </crs:ToneCurvePV2012Red>
     <crs:ToneCurvePV2012Green>
      <rdf:Seq>
       <rdf:li>0, 0</rdf:li>
       <rdf:li>255, 255</rdf:li>
      </rdf:Seq>
     </crs:ToneCurvePV2012Green>
     <crs:ToneCurvePV2012Blue>
      <rdf:Seq>
       <rdf:li>0, 0</rdf:li>
       <rdf:li>255, 255</rdf:li>
      </rdf:Seq>
     </crs:ToneCurvePV2012Blue>
     </rdf:Description>
    </crs:Parameters>
    </rdf:Description>
   </crs:Look>
  </rdf:Description>
 </rdf:RDF>
</x:xmpmeta>
